X:1
T:The Cúil Aodha
R:jig
M:6/8
L:1/8
K:A
|:age dBe|ABA c2d|edc dBA|GFE dcB|
|ABA AGA|BcB gab|age dBe|1 ABA A2a:|2 ABA A2e|]
|:eaa aga|bef gab|age dBe|dBA GAB|
|eaa aga|bef gab|age dBe|1 ABA A2e:|2 ABA A2a|]